src/icons/outline/cursor-click.svg

<svg width="24" height="24" viewBox="0 0 24 24" fill="none" xmlns="http://www.w3.org/2000/svg">
<path d="M14.9998 15L12.9998 20L8.99983 9L19.9998 13L14.9998 15ZM14.9998 15L19.9998 20M7.18806 2.23853L7.96452 5.1363M5.13606 7.96472L2.23828 7.18826M13.9495 4.05029L11.8282 6.17161M6.17146 11.8284L4.05014 13.9497" stroke="#4A5568" stroke-width="2" stroke-linecap="round" stroke-linejoin="round"/>
</svg>

<svg xmlns="http://www.w3.org/2000/svg" fill="none" viewBox="0 0 24 24" stroke="currentColor">
  <path stroke-linecap="round" stroke-linejoin="round" stroke-width="2" d="M15 15l-2 5L9 9l11 4-5 2zm0 0l5 5M7.188 2.239l.777 2.897M5.136 7.965l-2.898-.777M13.95 4.05l-2.122 2.122m-5.657 5.656l-2.12 2.122"/>
</svg>
